X:11
T:Dixons Cotillon
C:from Edward Winder's ms2
M:6/8
L:1/8
K:G
D|GFG ABc|B2G G2G|Bcd efg|f2d d2:|
|:d|gfg de=f|ede c2e|aga efg|fef d2G|BAG AGF|G2G G2:|

